X:1
T:March in D major
T:Carl Philipp Emanuel Bach
L:1/8
M:4/4
K:D
V:1 treble nm="Violin" snm="Vln."
V:1
 A2 | d2 A4 Bc | d2 A4 Bc | defg agfe | f2 d4 fe | f2 d4 BA | B^G (e2 e)dcB | (A3 d3/2) (B3 A3/2) | %8
 A2 (E3/2A3/2)cAce | a6 :: e2 | a2 e4 f^g | a2 e4 f^g | a2 =gf efge | f2 (d2 d)AB=c | Bdef gB^cd | %16
 cefg acde | dgba gfed | c2 A4 dA | BAGF GBeB | cABc defg | a2 d2 fedc | d2 (A3/2d3/2)dfa | d6 :| %24

